Sources/FrostedUI/Resources/Icons.xcassets/megaphone32.imageset/megaphone-32.svg

<svg width="32" height="32" viewBox="0 0 32 32" fill="none" xmlns="http://www.w3.org/2000/svg" data-fui-icon="true">
  <path
    d="M27 2C28.6569 2 30 3.34315 30 5V26C30 27.6569 28.6569 29 27 29C25.532 29 24.3102 27.9456 24.0508 26.5527L14 23.1064V26.5C14 27.8807 12.8807 29 11.5 29C10.1193 29 9 27.8807 9 26.5V21.75C9 21.6308 9.02963 21.519 9.0791 21.4189L7.8291 20.9902C7.41971 22.1599 6.30944 23 5 23C3.34315 23 2 21.6569 2 20V12C2 10.3431 3.34315 9 5 9C6.30868 9 7.41815 9.83918 7.82812 11.0078L24 5.46387V5C24 3.34315 25.3431 2 27 2ZM10.5 26.5C10.5 27.0523 10.9477 27.5 11.5 27.5C12.0523 27.5 12.5 27.0523 12.5 26.5V22.75C12.5 22.6978 12.5055 22.6469 12.5156 22.5977L10.5 21.9062V26.5ZM27 3.5C26.1716 3.5 25.5 4.17157 25.5 5V26C25.5 26.8284 26.1716 27.5 27 27.5C27.8284 27.5 28.5 26.8284 28.5 26V5C28.5 4.17157 27.8284 3.5 27 3.5ZM8 12.5352V19.4639L24 24.9492V7.04883L8 12.5352ZM5 10.5C4.17157 10.5 3.5 11.1716 3.5 12V20C3.5 20.8284 4.17157 21.5 5 21.5C5.82843 21.5 6.5 20.8284 6.5 20V12C6.5 11.1716 5.82843 10.5 5 10.5Z"
    fill="currentColor"
  />
</svg>

<svg xmlns="http://www.w3.org/2000/svg" width="32" height="32" fill="none" data-fui-icon="true" viewBox="0 0 32 32"><path fill="currentColor" d="M27 2a3 3 0 0 1 3 3v21a3 3 0 0 1-5.95.553L14 23.106V26.5a2.5 2.5 0 0 1-5 0v-4.75c0-.12.03-.231.08-.331l-1.25-.429A2.998 2.998 0 0 1 2 20v-8a2.998 2.998 0 0 1 5.828-.992L24 5.464V5a3 3 0 0 1 3-3M10.5 26.5a1 1 0 1 0 2 0v-3.75q0-.078.016-.152l-2.016-.692zM27 3.5A1.5 1.5 0 0 0 25.5 5v21a1.5 1.5 0 0 0 3 0V5A1.5 1.5 0 0 0 27 3.5M8 12.535v6.929l16 5.485V7.05zM5 10.5A1.5 1.5 0 0 0 3.5 12v8a1.5 1.5 0 0 0 3 0v-8A1.5 1.5 0 0 0 5 10.5"/></svg>
